src/topics/icons/hasura.svg

<svg height="305" preserveAspectRatio="xMidYMid" viewBox="0 0 256 305" width="256" xmlns="http://www.w3.org/2000/svg"><ellipse cx="128" cy="180.374331" fill="#ffc627" rx="103.632079" ry="103.632079"/><g fill="#232323"><path d="m169.254517 211.536972-38.76067-75.620887c-3.415014-6.662305-11.599448-9.303015-18.28067-5.885478-6.663566 3.423843-9.304275 11.605754-5.889261 18.270582l16.184749 31.553576-28.9683546 28.887645c-5.315468 5.302857-5.315468 13.895882-.0290049 19.208828 2.6545813 2.65332 6.1313892 3.988808 9.6081975 3.988808 3.476807 0 6.939743-1.335488 9.591802-3.964848l22.792828-22.742384 9.584237 18.690522c2.408669 4.693754 7.147822 7.392473 12.098837 7.392473 2.075744 0 4.18932-.482995 6.176788-1.499428 6.66735-3.416276 9.306798-11.598188 5.890522-18.279409"/><path d="m221.389588.9268116c-7.729091 4.90951108 5.324513 49.6861759-25.651807 76.0967889-19.547878-12.6781574-42.846132-20.110137-67.894562-20.110137-24.971891 0-48.2076392 7.404135-67.7261777 19.9974929-30.7913525-26.41441-17.7989784-71.07463372-25.4949031-75.9841448-12.6211633-8.04962373-36.34803197 38.1863518-34.52259385 67.5560875.98351698 15.7043603 5.16123175 38.7128679 16.57181455 56.5384819-8.50723049 16.724485-13.40568079 35.532254-13.40568079 55.496839 0 68.173732 55.88187819 123.640196 124.57881689 123.640196 68.71097 0 124.580092-55.463933 124.580092-123.640196 0-19.846879-4.855078-38.559722-13.267912-55.200674 11.548352-17.877506 15.757958-41.0505498 16.74275-56.8346469 1.835644-29.3697357-21.905257-75.60697689-34.509837-67.5560875m-93.546369 275.9578084c-53.5347039 0-97.1194308-43.21357-97.1194308-96.367665 0-53.128783 43.5847269-96.3600716 97.1194308-96.3600716 53.566595 0 97.124534 43.2312886 97.124534 96.3600716 0 53.156627-43.557939 96.367665-97.124534 96.367665"/></g></svg>

<?xml version="1.0" encoding="UTF-8"?>
<svg width="256px" height="305px" viewBox="0 0 256 305" version="1.1" xmlns="http://www.w3.org/2000/svg" xmlns:xlink="http://www.w3.org/1999/xlink" preserveAspectRatio="xMidYMid">
	<g>
		<ellipse fill="#FFC627" cx="128" cy="180.374331" rx="103.632079" ry="103.632079"></ellipse>
		<path d="M169.254517,211.536972 L130.493847,135.916085 C127.078833,129.25378 118.894399,126.61307 112.213177,130.030607 C105.549611,133.45445 102.908902,141.636361 106.323916,148.301189 L122.508665,179.854765 L93.5403104,208.74241 C88.2248424,214.045267 88.2248424,222.638292 93.5113055,227.951238 C96.1658868,230.604558 99.6426947,231.940046 103.119503,231.940046 C106.59631,231.940046 110.059246,230.604558 112.711305,227.975198 L135.504133,205.232814 L145.08837,223.923336 C147.497039,228.61709 152.236192,231.315809 157.187207,231.315809 C159.262951,231.315809 161.376527,230.832814 163.363995,229.816381 C170.031345,226.400105 172.670793,218.218193 169.254517,211.536972" fill="#232323"></path>
		<path d="M221.389588,0.926811603 C213.660497,5.83632268 226.714101,50.6129875 195.737781,77.0236005 C176.189903,64.3454431 152.891649,56.9134635 127.843219,56.9134635 C102.871328,56.9134635 79.6355798,64.3175985 60.1170413,76.9109564 C29.3256888,50.4965464 42.3180629,5.83632268 34.6221382,0.926811603 C22.0009749,-7.12281213 -1.72589377,39.1131634 0.0995443512,68.4828991 C1.08306133,84.1872594 5.2607761,107.195767 16.6713589,125.021381 C8.16412841,141.745866 3.26567811,160.553635 3.26567811,180.51822 C3.26567811,248.691952 59.1475563,304.158416 127.844495,304.158416 C196.555465,304.158416 252.424587,248.694483 252.424587,180.51822 C252.424587,160.671341 247.569509,141.958498 239.156675,125.317546 C250.705027,107.44004 254.914633,84.2669962 255.899425,68.4828991 C257.735069,39.1131634 233.994168,-7.12407779 221.389588,0.926811603 M127.843219,276.88462 C74.3085151,276.88462 30.7237882,233.67105 30.7237882,180.516955 C30.7237882,127.388172 74.3085151,84.1568834 127.843219,84.1568834 C181.409814,84.1568834 224.967753,127.388172 224.967753,180.516955 C224.967753,233.673582 181.409814,276.88462 127.843219,276.88462" fill="#232323"></path>
	</g>
</svg>
